X:1
T:Peace of the River
M:4/4
L:1/8
K:Eb
 E3 EE EE E| F4 F4| E4 F4| G8| c3 df ed c| B4 G4| B3- F=E-F-B-F| G8|\
